X:46081
T: MacPhail's Magic  [AABBA]
C: Colin Dewar
B: RSCDS 46-8
R: reel
Z: 2011 John Chambers <jc:trillian.mit.edu>
M: C|
L: 1/8
%--------------------
K: F
C/D/E |\
"F"F2F2 ^GAFD | "F"CDFG "(Dm)"A2GF | "Gm"G2GA BABc | "Gm"dcBA "C7"GFEC |
"F"F2FG "C7"^GAFD | "F"CDFG "D7/f#"AcBA | "Gm"d/c/B AF "C7"GFED | "F"C2F2 F2 :|
|: "F7"F_E |\
"Bb"D2F2 "Gm"defd | "Am"e2c2 "D7/f#"_e2dc | "Gm"d2B2 "C7"d2cB |
[1 "F"AB=Bc "F7"dcAF | "Bb"D2F2 "Gm"defd | "Am"e2c2 "D7/f#"_e2dc | "Gm"d/c/B AF "C7"GFED | "F"C2F2 F2 :|
[2 "F"AfcA "C7"dBGE | "F"F2FG ^GAFD | "F"CDFG "D7"AcBA | "Gm"d/c/B AF "C7"GFED | "F"C2F2 F2 |]
